X: 123
M:4/4
L:1/8
Q:160
K:G
|: ef|gfed g3 B|A2 g4 A2|G3 A B2 F2|E2 e4 f2|gfed g3 B|A2 A2 c2 d|e2 B2 A3 G| G6:|

